icons/discount-empty.svg

<svg xmlns="http://www.w3.org/2000/svg" width="24" height="24" viewBox="0 0 24 24" fill="none" stroke="currentColor" stroke-width="2" stroke-linecap="round" stroke-linejoin="round" class="hicon hicon-discount-empty"><path d="M3 3C3.39922 3.5978 4.14539 4 5 4C5.85461 4 6.60078 3.5978 7 3C7.29941 2.4022 7.85904 2 8.5 2C9.14096 2 9.70059 2.4022 10 3C10.3992 3.5978 11.1454 4 12 4C12.8546 4 13.6008 3.5978 14 3C14.2994 2.4022 14.859 2 15.5 2C16.141 2 16.7006 2.4022 17 3C17.3992 3.5978 18.1454 4 19 4C19.8546 4 20.6008 3.5978 21 3V21C20.6008 20.4022 19.8546 20 19 20C18.1454 20 17.3992 20.4022 17 21C16.7006 21.5978 16.141 22 15.5 22C14.859 22 14.2994 21.5978 14 21C13.6008 20.4022 12.8546 20 12 20C11.1454 20 10.3992 20.4022 10 21C9.70059 21.5978 9.14096 22 8.5 22C7.85904 22 7.29941 21.5978 7 21C6.60078 20.4022 5.85461 20 5 20C4.14539 20 3.39922 20.4022 3 21V3Z" stroke="currentColor" stroke-width="2" stroke-linecap="round" stroke-linejoin="round"></path></svg>

<svg xmlns="http://www.w3.org/2000/svg" width="24" height="24" viewBox="0 0 24 24" fill="none" stroke="currentColor" stroke-width="2" stroke-linecap="round" stroke-linejoin="round" class="hicon hicon-discount-empty"><path stroke="#333333" stroke-linecap="round" stroke-linejoin="round" stroke-width="2" d="M3 3c.4.598 1.145 1 2 1s1.6-.402 2-1c.3-.598.859-1 1.5-1s1.2.402 1.5 1c.4.598 1.145 1 2 1s1.6-.402 2-1c.3-.598.859-1 1.5-1s1.2.402 1.5 1c.4.598 1.145 1 2 1s1.6-.402 2-1v18c-.4-.598-1.145-1-2-1s-1.6.402-2 1c-.3.598-.859 1-1.5 1s-1.2-.402-1.5-1c-.4-.598-1.145-1-2-1s-1.6.402-2 1c-.3.598-.859 1-1.5 1s-1.2-.402-1.5-1c-.4-.598-1.145-1-2-1s-1.6.402-2 1V3z"></path></svg>
